svg/dex.svg

<?xml version="1.0" encoding="UTF-8"?>
<svg xmlns="http://www.w3.org/2000/svg" xmlns:xlink="http://www.w3.org/1999/xlink" width="32.881001" height="32" viewBox="0 0 32.881001 32">
<path fill-rule="nonzero" fill="rgb(26.666668%, 62.352943%, 84.705883%)" fill-opacity="1" d="M 25.9375 15.140625 C 28.128906 14.117188 29.683594 12.085938 30.097656 9.699219 C 28.300781 5.671875 24.816406 2.644531 20.578125 1.425781 C 22.015625 3.5 22.714844 6 22.566406 8.519531 C 24.535156 10.183594 25.75 12.570312 25.9375 15.140625 M 8.007812 11.316406 C 5.609375 11.007812 3.214844 11.890625 1.589844 13.679688 C 0.945312 18.097656 2.3125 22.574219 5.3125 25.882812 C 5.15625 23.328125 5.863281 20.796875 7.320312 18.695312 C 6.546875 16.242188 6.796875 13.582031 8.007812 11.316406 M 9.691406 22.585938 C 8.792969 24.980469 9.199219 27.667969 10.761719 29.691406 C 14.398438 31.175781 18.472656 31.171875 22.105469 29.683594 C 19.734375 28.925781 17.679688 27.40625 16.265625 25.359375 C 13.796875 25.320312 11.441406 24.324219 9.691406 22.585938 M 18.53125 6.519531 C 18.070312 4.046875 16.386719 1.972656 14.058594 1.019531 C 9.804688 1.699219 6.050781 4.175781 3.746094 7.816406 C 6.101562 7.097656 8.628906 7.164062 10.945312 8.007812 C 13.148438 6.457031 15.90625 5.914062 18.53125 6.519531 M 25.214844 19.511719 C 24.324219 21.640625 22.6875 23.375 20.613281 24.386719 C 22.429688 26.023438 24.9375 26.664062 27.320312 26.097656 C 29.9375 23.316406 31.398438 19.640625 31.402344 15.820312 C 29.792969 17.691406 27.621094 18.984375 25.214844 19.511719 M 25.214844 19.511719 "/>
<path fill-rule="nonzero" fill="rgb(94.117647%, 30.19608%, 36.078432%)" fill-opacity="1" d="M 21.140625 15.820312 C 21.164062 17.511719 20.277344 19.085938 18.816406 19.941406 C 17.355469 20.792969 15.546875 20.796875 14.085938 19.941406 C 12.625 19.089844 11.738281 17.515625 11.761719 15.824219 C 11.757812 13.234375 13.859375 11.132812 16.449219 11.132812 C 19.039062 11.132812 21.140625 13.230469 21.140625 15.820312 M 21.140625 15.820312 "/>
</svg>

<svg role="img" viewBox="0 0 32.881 32" xmlns="http://www.w3.org/2000/svg"><path d="M25.938 15.14a7.4 7.4 0 0 0 4.16-5.44 14.95 14.95 0 0 0-9.52-8.274 11.3 11.3 0 0 1 1.988 7.094 9.58 9.58 0 0 1 3.372 6.62m-17.93-3.824A7.4 7.4 0 0 0 1.59 13.68a14.96 14.96 0 0 0 3.723 12.203 11.4 11.4 0 0 1 2.007-7.188 9.56 9.56 0 0 1 .688-7.379m1.683 11.27a7.38 7.38 0 0 0 1.07 7.105 15 15 0 0 0 11.344-.007 11.26 11.26 0 0 1-5.84-4.325 9.54 9.54 0 0 1-6.574-2.773m8.84-16.066a7.41 7.41 0 0 0-4.472-5.5A15 15 0 0 0 3.746 7.816a11.35 11.35 0 0 1 7.2.192A9.48 9.48 0 0 1 18.53 6.52m6.684 12.992a9.5 9.5 0 0 1-4.602 4.875 7.45 7.45 0 0 0 6.707 1.71 15.02 15.02 0 0 0 4.082-10.277 11.37 11.37 0 0 1-6.187 3.692m0 0" fill="rgb(26.666668%, 62.352943%, 84.705883%)"/><path d="M21.14 15.82a4.69 4.69 0 1 1-9.379.004 4.69 4.69 0 0 1 9.379-.004m0 0" fill="rgb(94.117647%, 30.19608%, 36.078432%)"/></svg>
